!!!SOCIAL_FUNCTION:	moccasin game songs
!!!PDT:	1932
!!!OTL: No_132_Moccasin_Game_Song_(a).krn
!!!REG: Wisconsin
!!!LANG: Non-Tone
!!!LING_GROUP: Algonquin
**kern
*staff1
=1-
=
*clefF4
*k[b-e-a-d-]
*M3/4
8.c\L
16c\Jk
4c\
4B-\
=2
8.c\L
16c\Jk
4B-\
4A-\
=3
8.B-\L
16B-\Jk
8.A-\L
16B-\Jk
8.A-\L
16F\Jk
=4||
*M2/4
8.F\L
16F\Jk
8F\
8r
=5||
*M3/4
8.A-\L
16A-\Jk
8.A-\L
16B-\Jk
8A-\L
8F\J
=6||
*M2/4
8.E-\L
16E-\Jk
4E-\
=7
8.C/L
16C/Jk
8C/
8r
=8||
*M3/4
8.A-\L
16A-\Jk
8.A-\L
16B-\Jk
8A-\L
8F\J
=9||
*M2/4
8.F\L
16F\Jk
4F\
==:|!
*-
